X: 15805
T: Goodnatured Man, The
R: hornpipe
M: 4/4
K: Gmajor
|:(3Bcd|g2bg d2gd|BcdB G2AB|cded cBAG|F/G/AEF D2(3def|
g2bg dggd|BcdB G2AB|cedc BAGF|A2GF G2:|
|:Bc|d2dB g2gf|ecec a2ag|f2fd g2ge|fgaf d2fd|
g2bg d2gd|BcdB G2AB|cedc BAGF|A2GF G2:|

